X: 16664
T: Hanter Dro
R: three-two
M: 3/2
K: Eminor
|:B2EG B2G2 c4|B2EG B2G2 A4|B2EG B2G2 c4|ABAG F2D2 E4:|
e2ed c4 dedc|BAGB A2GA B4|e3d c2c2 dedc|B4 cABc A2A2||

